cssgg/board.svg

<svg
  width="24"
  height="24"
  viewBox="0 0 24 24"
  fill="none"
  xmlns="http://www.w3.org/2000/svg"
>
  <path
    fill-rule="evenodd"
    clip-rule="evenodd"
    d="M6 4C3.79086 4 2 5.79086 2 8V16C2 18.2091 3.79086 20 6 20H18C20.2091 20 22 18.2091 22 16V8C22 5.79086 20.2091 4 18 4H6ZM14 6H10V18H14V6ZM16 6V18H18C19.1046 18 20 17.1046 20 16V8C20 6.89543 19.1046 6 18 6H16ZM6 18H8V6H6C4.89543 6 4 6.89543 4 8V16C4 17.1046 4.89543 18 6 18Z"
    fill="currentColor"
  />
</svg>

<svg viewBox="0 0 24 24" xmlns="http://www.w3.org/2000/svg"><path fill-rule="evenodd" d="M6 4C3.79 4 2 5.79 2 8v8c0 2.2 1.79 4 4 4h12c2.2 0 4-1.8 4-4V8c0-2.21-1.8-4-4-4H6Zm8 2h-4v12h4V6Zm2 0v12h2c1.1 0 2-.9 2-2V8c0-1.11-.9-2-2-2h-2ZM6 18h2V6H6c-1.11 0-2 .89-2 2v8c0 1.1.89 2 2 2Z"/></svg>
